X: 1
T:The Lookout
M:3/4
L:1/8
Q:150
C:Stephen P. McNally
S: 1997
K:D
|:df dg da-|ad gd fd-|df dg da-|ab ag fe:|
|:fB- Bd cB|cA- Ag fe|fd fc fB|1Ad fA eg:|2A e-e4|
